X: 1
T: Lady Harriet Hope
S:Kerr's Merry Melodies Bk.1 c1870s
N:Nigel Gatherer
M: 4/4
L: 1/8
K: D
F | DFAd BAGF | d2 (3fed eEEF | DFAd BAGF | GEAF D/D/D D :|
A | dAdf (3def ed | cAeA fAeA | dAde (3def ed | Adce d/d/d dA |
dAde (3def ed | edef gfef | dBAG FAdB | AFGE D/D/D D ||
dBAG (3(FGA) dB|AF GE D2|]
